64x64/apps/navit.svg

<svg xmlns="http://www.w3.org/2000/svg" width="64" height="64" version="1">
 <path style="opacity:0.2" d="m 10,54.2 0,2 c 0,1.55 1.2496,2.8 2.8008,2.8 l 38.4,0 c 1.55,0 2.8,-1.25 2.8,-2.8 l 0,-2 c 0,1.55 -1.25,2.8 -2.8,2.8 l -38.4,0 c -1.5504,0 -2.8,-1.25 -2.8,-2.8 z"/>
 <path style="fill:#4f4f4f" d="M 54,55.2 54,6.8 C 54,5.2488 52.752,4 51.2,4 L 12.8,4 C 11.2488,4 10,5.2488 10,6.8 l 0,48.4 c 0,1.552 1.2488,2.8 2.8,2.8 l 38.4,0 c 1.5512,0 2.8,-1.2488 2.8,-2.8 z"/>
 <g style="opacity:0.2" transform="translate(-0.95704,-0.84766)">
  <path d="m 29.95704,9.84766 v 10 h 6 v -10 z m 0,18 v 10 h 6 v -10 z m 0,18 v 10 h 6 v -10 z"/>
 </g>
 <g transform="translate(-0.95704,-1.84766)">
  <path style="fill:#f4f4f7" d="m 29.95704,9.84766 v 10 h 6 v -10 z m 0,18 v 10 h 6 v -10 z m 0,18 v 10 h 6 v -10 z"/>
 </g>
 <path style="opacity:0.1;fill:#f4f4f7" d="M 12.800781 4 C 11.249581 4 10 5.2495812 10 6.8007812 L 10 7.8007812 C 10 6.2495813 11.249581 5 12.800781 5 L 51.201172 5 C 52.751172 5 54 6.2495813 54 7.8007812 L 54 6.8007812 C 54 5.2495812 52.751172 4 51.201172 4 L 12.800781 4 z"/>
 <path style="opacity:0.2;fill-rule:evenodd" d="M 63.958,45.848 A 16,16 0 0 1 48,61 16,16 0 0 1 32.042,46.152 16,16 0 0 0 32,47 16,16 0 0 0 48,63 16,16 0 0 0 64,47 16,16 0 0 0 63.95704,45.84766 Z"/>
 <circle style="fill:#3f8ce6" cx="48" cy="46" r="16"/>
 <path style="fill:#f4f4f7" d="M 46 32 L 46 36.203125 A 10 10 0 0 0 38.210938 44 L 34 44 L 34 48 L 38.203125 48 A 10 10 0 0 0 46 55.789062 L 46 60 L 50 60 L 50 55.796875 A 10 10 0 0 0 57.789062 48 L 62 48 L 62 44 L 57.796875 44 A 10 10 0 0 0 50 36.210938 L 50 32 L 46 32 z M 48 41 A 5 5 0 0 1 53 46 A 5 5 0 0 1 48 51 A 5 5 0 0 1 43 46 A 5 5 0 0 1 48 41 z"/>
</svg>

<svg xmlns="http://www.w3.org/2000/svg" width="64" height="64" version="1"><path style="opacity:.2" d="M10 54.2v2c0 1.55 1.25 2.8 2.8 2.8h38.4c1.55 0 2.8-1.25 2.8-2.8v-2c0 1.55-1.25 2.8-2.8 2.8H12.8c-1.55 0-2.8-1.25-2.8-2.8z"/><path style="fill:#4f4f4f" d="M54 55.2V6.8C54 5.249 52.752 4 51.2 4H12.8A2.794 2.794 0 0 0 10 6.8v48.4c0 1.552 1.249 2.8 2.8 2.8h38.4c1.551 0 2.8-1.249 2.8-2.8z"/><path d="M29.957 9.848v10h6v-10zm0 18v10h6v-10zm0 18v10h6v-10z" transform="translate(-.957 -.848)" style="opacity:.2"/><path style="fill:#f4f4f7" d="M29.957 9.848v10h6v-10zm0 18v10h6v-10zm0 18v10h6v-10z" transform="translate(-.957 -1.848)"/><path style="opacity:.1;fill:#f4f4f7" d="M12.8 4C11.25 4 10 5.25 10 6.8v1C10 6.25 11.25 5 12.8 5h38.401C52.751 5 54 6.25 54 7.8v-1C54 5.25 52.751 4 51.201 4h-38.4z"/><path style="opacity:.2;fill-rule:evenodd" d="M63.958 45.848A16 16 0 0 1 48 61a16 16 0 0 1-15.958-14.848A16 16 0 0 0 32 47a16 16 0 0 0 16 16 16 16 0 0 0 16-16 16 16 0 0 0-.043-1.152z"/><circle style="fill:#3f8ce6" cx="48" cy="46" r="16"/><path style="fill:#f4f4f7" d="M46 32v4.203A10 10 0 0 0 38.21 44H34v4h4.203A10 10 0 0 0 46 55.79V60h4v-4.203A10 10 0 0 0 57.79 48H62v-4h-4.203A10 10 0 0 0 50 36.21V32h-4zm2 9a5 5 0 0 1 5 5 5 5 0 0 1-5 5 5 5 0 0 1-5-5 5 5 0 0 1 5-5z"/></svg>
